lib/logo_tmp/nrk-logo-nrk-jazz-title-below-on-dark.svg

<svg width="40" height="35" viewBox="0 0 40 35" fill="none" xmlns="http://www.w3.org/2000/svg">
<path d="M0 14.3333V0.334605H4.59339V14.3333H0ZM10.8428 2.56258L13.4844 14.3333H8.45737L5.30307 0.334605H8.12254C8.76907 0.326214 9.39641 0.554123 9.88691 0.975455C10.3782 1.37911 10.7158 1.93948 10.8428 2.56258ZM14.1744 14.3333V0.334605H18.7678V14.3333H14.1744ZM22.2372 5.65812C21.7422 5.66294 21.2552 5.53343 20.828 5.28346C20.4064 5.03981 20.0563 4.68962 19.8127 4.26803C19.5624 3.84072 19.4329 3.35355 19.4378 2.85837C19.4321 2.3662 19.5618 1.88194 19.8127 1.4585C20.0589 1.04149 20.4086 0.695109 20.828 0.452939C21.2553 0.203253 21.7423 0.073767 22.2372 0.0782812C22.7292 0.0729823 23.2133 0.202584 23.6369 0.452939C24.0521 0.697232 24.3981 1.04332 24.6424 1.4585C24.893 1.88206 25.0226 2.36624 25.0172 2.85837C25.0218 3.35352 24.8923 3.8406 24.6424 4.26803C24.4007 4.68777 24.0542 5.03766 23.6369 5.28346C23.2133 5.53431 22.7289 5.66394 22.2366 5.65812H22.2372ZM25.7269 14.3333V0.334605H30.3207V14.3333H25.7269ZM36.136 7.98461C36.1489 7.99819 36.2475 8.1592 36.4317 8.46765C36.6159 8.7761 36.8558 9.17046 37.1513 9.65067C37.447 10.1307 37.759 10.64 38.0874 11.1787C38.4157 11.7174 38.7247 12.2268 39.0143 12.7067C39.3028 13.1867 39.6313 13.7289 40 14.3333H34.9531C34.6375 13.8207 34.3515 13.3574 34.0952 12.9433C33.8389 12.5293 33.5665 12.0823 33.2778 11.6026C32.9884 11.1233 32.7024 10.6566 32.4196 10.2027C32.1368 9.74879 31.8938 9.35121 31.6905 9.0099C31.4863 8.66837 31.3449 8.43831 31.2663 8.31979C31.0713 8.02568 30.9559 7.68601 30.9315 7.33397C30.951 6.99609 31.0597 6.66947 31.2466 6.3873C31.3254 6.25585 31.47 6.0225 31.6803 5.68732C31.8906 5.35214 32.137 4.95456 32.4196 4.49451C32.7021 4.03446 32.9882 3.56454 33.2778 3.08477C33.5674 2.605 33.8398 2.15477 34.0952 1.73416C34.3519 1.31398 34.6379 0.84735 34.9531 0.334284H40L36.0962 6.70275C35.9754 6.89183 35.9073 7.10974 35.8991 7.33397C35.9121 7.56938 35.9942 7.7957 36.1353 7.98461H36.136Z" fill="white"/>
<path d="M3.80766 31.1469C3.81132 31.3756 3.7714 31.6029 3.68994 31.8166C3.6162 32.0062 3.50236 32.1775 3.35627 32.3188C3.20455 32.4612 3.02367 32.5688 2.82629 32.6339C2.59837 32.7091 2.35962 32.7457 2.11974 32.7423C1.96272 32.7423 1.81549 32.7357 1.6781 32.7225C1.5407 32.7094 1.40331 32.693 1.26592 32.6733C1.12853 32.6536 0.991213 32.6305 0.853822 32.604C0.716431 32.5776 0.575756 32.5482 0.431823 32.5158C0.287889 32.4829 0.143933 32.4468 0 32.4074L0.157012 34.1801C0.3402 34.2326 0.516884 34.2817 0.686987 34.3275C0.85709 34.3737 1.02713 34.4128 1.19724 34.446C1.37239 34.4792 1.54938 34.5021 1.72721 34.5146C1.9104 34.5277 2.11317 34.5344 2.33561 34.5346C2.78937 34.5418 3.24193 34.4853 3.68012 34.3668C4.03755 34.2694 4.37372 34.1059 4.6713 33.8846C4.93965 33.6815 5.1691 33.4313 5.34847 33.146C5.52676 32.8598 5.6592 32.5474 5.741 32.22C5.82727 31.8755 5.8701 31.5215 5.86854 31.1662V20.3334H3.80766V31.1469Z" fill="#C8A1F5"/>
<path d="M17.4879 33.0771C17.3444 33.0903 17.1999 33.0685 17.0667 33.0136C16.9334 32.9588 16.8153 32.8725 16.7224 32.762C16.5404 32.4464 16.4647 32.0803 16.5065 31.7181L16.5458 27.6607C16.5501 27.2353 16.4973 26.8113 16.3888 26.4001C16.2934 26.0394 16.1338 25.699 15.9177 25.3953C15.6992 25.0985 15.4219 24.8504 15.1031 24.6666C14.7327 24.4557 14.3323 24.303 13.9157 24.2139C13.4063 24.1035 12.8863 24.0506 12.3652 24.0563C11.9518 24.056 11.5387 24.0822 11.1286 24.1348C10.7412 24.1839 10.3576 24.2597 9.98044 24.3616C9.63069 24.4566 9.28668 24.5717 8.95004 24.7063L8.71444 26.3804C9.04156 26.2625 9.35236 26.164 9.64677 26.085C9.94118 26.006 10.2258 25.9403 10.5006 25.888C10.7698 25.8365 11.0418 25.8004 11.3151 25.78C11.5829 25.7603 11.8479 25.7504 12.11 25.7501C12.5102 25.7417 12.9097 25.7881 13.2974 25.888C13.5804 25.9591 13.8405 26.1016 14.0531 26.302C14.2425 26.4967 14.3778 26.7377 14.4456 27.0012C14.5293 27.3259 14.569 27.6605 14.5634 27.9958L14.5611 28.4899L12.267 28.6458C11.4824 28.6678 10.7093 28.8416 9.99027 29.1576C9.45231 29.394 8.98781 29.7717 8.64576 30.2507C8.35557 30.6771 8.20159 31.182 8.2042 31.6984C8.20057 32.1829 8.31864 32.6606 8.54761 33.0873C8.78782 33.5253 9.14912 33.8842 9.58791 34.121C10.1233 34.4005 10.7217 34.5363 11.3249 34.5149C11.89 34.5279 12.4526 34.4345 12.9834 34.2395C13.4423 34.0593 13.8622 33.7918 14.2199 33.4517C14.3558 33.3211 14.4846 33.1833 14.6059 33.039C14.644 33.2431 14.7159 33.4392 14.8186 33.6194C14.9936 33.9209 15.2625 34.1562 15.584 34.2891C15.9394 34.4324 16.3199 34.5027 16.7028 34.4959C16.8206 34.4959 16.9351 34.4923 17.0463 34.486C17.1555 34.4794 17.2639 34.4628 17.3701 34.4365C17.4748 34.4102 17.5693 34.3876 17.6547 34.3675C17.7316 34.3505 17.8071 34.3274 17.8804 34.2986L18.0963 32.9793C17.988 33.0165 17.8762 33.0429 17.7627 33.0581C17.6716 33.07 17.5798 33.0764 17.4879 33.0771ZM14.2199 32.1908C14.0071 32.3597 13.7768 32.5051 13.5329 32.6244C13.29 32.7428 13.0327 32.8289 12.7675 32.8805C12.4926 32.9335 12.2133 32.9598 11.9333 32.9589C11.6135 32.9683 11.2953 32.9078 11.001 32.7817C10.7615 32.6775 10.5596 32.5024 10.4221 32.2797C10.2861 32.0436 10.2181 31.7743 10.2258 31.5017C10.2068 31.1733 10.2965 30.8477 10.4809 30.5757C10.6947 30.3256 10.9843 30.1526 11.3053 30.0833C11.8067 29.965 12.3213 29.9121 12.8362 29.9261H14.5549L14.5461 31.8809C14.4464 31.9932 14.3372 32.0971 14.2199 32.1908Z" fill="#C8A1F5"/>
<path d="M27.3797 25.6713L27.1442 24.2726H19.5681L19.3325 25.8483H25.0323L19.1562 32.9783L19.3917 34.3176H27.3997L27.6155 32.7222H21.6165L27.3797 25.6713Z" fill="#C8A1F5"/>
<path d="M31.5083 32.7226L37.2722 25.6717L37.0363 24.2729H29.4602L29.2246 25.8486H34.9241L29.0481 32.9786L29.2836 34.318H37.2915L37.5074 32.7226H31.5083Z" fill="#C8A1F5"/>
</svg>

<svg xmlns="http://www.w3.org/2000/svg" viewBox="0 0 40 35"><path fill="#fff" d="M0 14.333V.335h4.593v13.998H0Zm10.843-11.77 2.641 11.77H8.457L5.303.335h2.82a2.655 2.655 0 0 1 1.764.64c.491.404.829.964.956 1.588Zm3.331 11.77V.335h4.594v13.998h-4.594Zm8.063-8.675a2.738 2.738 0 0 1-1.409-.375 2.778 2.778 0 0 1-1.015-1.015 2.735 2.735 0 0 1-.375-1.41 2.685 2.685 0 0 1 .375-1.4A2.812 2.812 0 0 1 23.637.454c.415.244.761.59 1.005 1.005.251.424.38.908.375 1.4.005.496-.125.983-.375 1.41a2.8 2.8 0 0 1-1.005 1.015c-.424.251-.908.38-1.4.375Zm3.49 8.675V.335h4.594v13.998h-4.594Zm10.409-6.348c.013.013.111.174.296.483.184.308.424.702.72 1.183a386.846 386.846 0 0 1 1.862 3.056c.289.48.617 1.022.986 1.626h-5.047l-.858-1.39c-.256-.414-.529-.86-.817-1.34-.29-.48-.576-.946-.858-1.4a71.148 71.148 0 0 1-.73-1.193 21.112 21.112 0 0 0-.424-.69 2.04 2.04 0 0 1-.334-.986c.019-.338.128-.665.315-.947.078-.131.223-.364.433-.7a216.7 216.7 0 0 0 1.598-2.603l.817-1.35.858-1.4H40l-3.904 6.369c-.12.189-.189.407-.197.631.013.235.095.462.236.65h.001Z"/><path fill="#C8A1F5" d="M3.808 31.147a1.8 1.8 0 0 1-.118.67 1.41 1.41 0 0 1-.334.502c-.151.142-.332.25-.53.315a2.157 2.157 0 0 1-.706.108 4.63 4.63 0 0 1-.442-.02 8.764 8.764 0 0 1-.824-.118A10.481 10.481 0 0 1 0 32.407l.157 1.773c.183.053.36.102.53.148.17.046.34.085.51.118.175.033.352.056.53.069.183.013.386.02.609.02.453.007.906-.05 1.344-.168a2.97 2.97 0 0 0 .991-.482c.269-.203.498-.454.677-.739.179-.286.311-.599.393-.926a4.26 4.26 0 0 0 .128-1.054V20.333H3.808v10.814ZM17.488 33.077a.891.891 0 0 1-.766-.315 1.7 1.7 0 0 1-.216-1.044l.04-4.057a4.753 4.753 0 0 0-.157-1.26 3.1 3.1 0 0 0-.471-1.006 2.664 2.664 0 0 0-.815-.728c-.37-.211-.77-.364-1.187-.453a6.96 6.96 0 0 0-1.55-.158c-.414 0-.827.026-1.237.079a8.5 8.5 0 0 0-1.149.227c-.35.095-.693.21-1.03.344l-.236 1.674a11.713 11.713 0 0 1 1.787-.492 7.18 7.18 0 0 1 .814-.108c.268-.02.533-.03.795-.03.4-.008.8.038 1.187.138.283.071.543.214.756.414.19.195.325.436.393.7.083.324.123.659.117.994l-.002.494-2.294.156a6.082 6.082 0 0 0-2.277.512 3.268 3.268 0 0 0-1.344 1.093 2.55 2.55 0 0 0-.442 1.447c-.003.485.115.963.344 1.39.24.437.601.796 1.04 1.033.535.28 1.134.415 1.737.394a4.509 4.509 0 0 0 1.658-.276c.46-.18.88-.447 1.237-.787a5.32 5.32 0 0 0 .386-.413c.038.204.11.4.213.58.175.302.443.537.765.67.355.143.736.214 1.119.207.118 0 .232-.004.343-.01.11-.007.218-.023.324-.05l.285-.069c.077-.017.152-.04.225-.068l.216-1.32c-.108.038-.22.064-.333.08a2.255 2.255 0 0 1-.275.018Zm-3.268-.886a3.769 3.769 0 0 1-.687.433c-.243.119-.5.205-.765.256-.275.053-.555.08-.835.079-.32.01-.638-.051-.932-.177a1.281 1.281 0 0 1-.579-.502 1.475 1.475 0 0 1-.196-.778c-.02-.329.07-.654.255-.926.214-.25.503-.423.824-.493a5.961 5.961 0 0 1 1.531-.157h1.719l-.009 1.955a2.64 2.64 0 0 1-.326.31ZM27.38 25.671l-.236-1.398h-7.576l-.236 1.575h5.7l-5.876 7.13.236 1.34H27.4l.216-1.596h-6l5.764-7.05ZM31.508 32.723l5.764-7.051-.236-1.4H29.46l-.235 1.577h5.7l-5.877 7.13.236 1.339h8.008l.215-1.595h-5.999Z"/></svg>
